sports/_inc/system.svg

<svg viewBox="0 0 200 40" xmlns="http://www.w3.org/2000/svg" xmlns:xlink="http://www.w3.org/1999/xlink"><mask id="a"><path d="m304 156.5a149 149 0 1 1 -298 0 149 149 0 1 1 298 0z" fill="#fff" fill-rule="evenodd" transform="matrix(.996644 0 0 .996644 2.02013 .525168)"/></mask><path d="m54.87 20.168c0 7.428-8.142 12.071-14.658 8.357-3.024-1.723-4.885-4.91-4.885-8.357 0-7.429 8.142-12.072 14.658-8.358 3.023 1.724 4.885 4.911 4.885 8.358z" fill="#fff" fill-rule="evenodd"/><g mask="url(#a)" transform="matrix(.065805 0 0 .064984 34.799545 9.99781)"><g fill="none" stroke="#141414"><path d="m592.8171 448.4119c-6.7551-10.5208-13.2729-15.3792-26.1358-18.6141" stroke-width="2.30567" transform="matrix(.650569 0 0 .650569 -87.30901 -182.4046)"/><path d="m50 45.375 13.5 13.75" stroke-width="1.5" transform="translate(.000016 -.000002)"/><path d="m48 92c-30.656969 21.95613-38.1250677 66.5057-37 66.25" stroke-width="1.5" transform="translate(.000016 -.000002)"/><path d="m87 95.25c-3.161261 23.33707 5.251479 48.91426 22.75 76.25" stroke-width="1.5" transform="translate(.000016 -.000002)"/><path d="m29.125 206.875c14.426728 14.42384 33.602088 12.20951 51.625 12.625" stroke-width="1.5" transform="translate(.000016 -.000002)"/><path d="m124.62757 264.85868c-3.12231 8.25159-2.31517 19.68415-.53033 31.90819" stroke-width="1.5" transform="translate(.000016 -.000002)"/><path d="m103.06081 28.41985c11.47697-11.491103 36.09496-18.9077039 68.23581-22.2738633" stroke-width="1.5" transform="translate(.000016 -.000002)"/><path d="m237.32271 50.074995c-7.98715-14.875774-22.05796-26.564868-36.94771-37.824995" stroke-width="1.5" transform="translate(.000016 -.000002)"/><path d="m127.98633 54.052471c17.64281 1.987199 49.48708 4.60109 74.77654 18.915107" stroke-width="1.5" transform="translate(.000016 -.000002)"/><path d="m222.5 124c-15.12241 20.853-33.37786 40.31354-54.5 58.5" stroke-width="1.5"/><path d="m177.5 238.25c19.35774 10.80051 40.56069 15.44485 66.25 11.25" stroke-width="1.5"/><path d="m268.5 136.5c9.88101 18.55214 11.33112 44.88666 12.75 71.25" stroke-width="1.5"/><path d="m277.75 96.75c8.13915.273647 16.0266 4.57442 23.5 15.5" stroke-width="1.5"/></g><path d="m40.25 98c20.653975 3.61865 29.152891 2.15978 46.25 3.75 10.106779-13.261723 27.26236-30.047846 45.25-47.25-7.42374-11.584726-14.43052-23.441076-23.25-30.75-22.390269 7.590533-38.335182 16.93889-53.5 26.5-9.518255 16.574036-14.564708 32.509244-14.75 47.75z" fill="#141414" fill-rule="evenodd"/><path d="m198 70.75c6.79286 18.669048 12.6345 35.43567 21.25 57.75 17.72598 4.68078 36.62577 10.30061 51.25 12.5 4.70076-9.43748 7.81084-27.6237 11.25-44-11.68034-18.118165-28.341-33.746166-45.25-49.25-12.43564 4.485122-25.40362 13.228984-38.5 23z" fill="#141414" fill-rule="evenodd"/><path d="m106.75 167c22.79472 3.75 44.78732 7.5 66.25 11.25 6.63556 20.83333 7.4943 41.66667 9.75 62.5-16.40955 13.63568-39.03853 17.94221-59 26.25-23.22635-15.01337-32.6832-31.74793-46-48 7.646852-17.58581 16.08235-35.07304 29-52z" fill="#141414" fill-rule="evenodd"/><path d="m1.0606602 148.80478c.0322268 1.04777 8.0467844 2.22601 10.9601548 1.06066 3.346348 21.4179 7.728694 42.14513 19.445437 57.98276-2.293995 11.22327-.134448 20.21976 3.18198 28.63782-20.318369 5.69467-18.552158 8.77396-26.516504 12.37437" fill="#141414" fill-rule="evenodd"/><path d="m75.660426 284.39251c19.310672 5.11252 33.378614 15.03674 48.260034 9.89949 4.37683 6.19991 16.48638 10.68355 48.08326 12.02082l-85.913469 7.60139" fill="#141414" fill-rule="evenodd"/><path d="m299.625 212.625c-5.63736-4.15431-11.46921-8.11413-18.75-10.625-14.5 19.3174-29 41.30773-43.5 48.25-.26726 11.90911-2.12316 22.54731-7.375 30.46875 10.95118.73852 22.38887.69864 35-1.21875" fill="#141414" fill-rule="evenodd"/></g><path d="m54.87 20.168c0 7.428-8.142 12.071-14.658 8.357-3.024-1.723-4.885-4.91-4.885-8.357 0-7.429 8.142-12.072 14.658-8.358 3.023 1.724 4.885 4.911 4.885 8.358z" fill="none" stroke="#141414" stroke-linecap="round" stroke-linejoin="round"/><path d="m61.572 28.87 1.68-4.95c1.68.46 3.22.69 4.62.69 1.4 0 2.53-.06 3.39-.18l.24-1.5-2.49-.24c-1.9-.18-3.247-.61-4.04-1.29-.787-.68-1.18-1.64-1.18-2.88 0-.54.06-1.14.18-1.8.46-2.56 1.293-4.32 2.5-5.28 1.213-.96 3.09-1.44 5.63-1.44 2.54 0 4.78.25 6.72.75l-1.56 4.8c-1.74-.3-3.14-.45-4.2-.45-1.06 0-1.96.05-2.7.15l-.24 1.47 2.01.21c2.04.22 3.49.707 4.35 1.46.86.747 1.29 1.75 1.29 3.01 0 1.28-.28 2.6-.84 3.96-.28.7-.587 1.287-.92 1.76-.327.467-.747.863-1.26 1.19-.507.333-.97.583-1.39.75-.42.173-.95.3-1.59.38-.94.14-2.09.21-3.45.21-2.48 0-4.73-.26-6.75-.78zm27.99-4.2h-3.72l-.78 4.53h-5.7l3.3-18.75h9c3.4 0 5.1 1.58 5.1 4.74 0 1.5-.21 2.853-.63 4.06-.42 1.213-.884 2.177-1.39 2.89-.514.707-1.217 1.307-2.11 1.8-.887.487-1.91.73-3.07.73zm-.75-9.42h-1.32l-.81 4.62h1.32c.68 0 1.193-.073 1.54-.22.353-.153.58-.5.68-1.04.26-1.48.39-2.29.39-2.43 0-.38-.15-.63-.45-.75-.3-.12-.75-.18-1.35-.18zm15.209 1.47-1.38 7.8h2.37c.78 0 1.36-.093 1.74-.28.38-.193.63-.63.75-1.31l1.38-7.8h-2.4c-.76 0-1.33.093-1.71.28-.38.193-.63.63-.75 1.31zm3.45-6.72c2.54 0 4.35.497 5.43 1.49 1.08.987 1.62 2.51 1.62 4.57 0 2.06-.326 4.217-.98 6.47-.646 2.247-1.676 3.993-3.09 5.24-1.406 1.253-3.466 1.88-6.18 1.88-2.706 0-4.6-.493-5.68-1.48-1.08-.993-1.62-2.52-1.62-4.58 0-.98.14-2.273.42-3.88.28-1.613.65-3.003 1.11-4.17.46-1.173 1.08-2.19 1.86-3.05 1.5-1.66 3.87-2.49 7.11-2.49zm21.54 12.96 1.98 6.24h-6.27l-1.38-5.58h-1.23l-.96 5.58h-5.7l3.3-18.75h9c3.42 0 5.13 1.53 5.13 4.59 0 1.26-.19 2.46-.57 3.6-.7 2.16-1.8 3.6-3.3 4.32zm-4.29-7.71h-1.14l-.66 3.75h1.32c.68 0 1.193-.073 1.54-.22.353-.153.593-.583.72-1.29.133-.713.2-1.15.2-1.31 0-.4-.153-.657-.46-.77-.313-.107-.82-.16-1.52-.16zm24.6-4.8-.87 4.8h-4.14l-2.43 13.95h-5.7l2.43-13.95h-4.11l.87-4.8zm-1.44 18.42 1.68-4.95c1.68.46 3.22.69 4.62.69 1.4 0 2.53-.06 3.39-.18l.24-1.5-2.49-.24c-1.9-.18-3.247-.61-4.04-1.29-.787-.68-1.18-1.64-1.18-2.88 0-.54.06-1.14.18-1.8.46-2.56 1.293-4.32 2.5-5.28 1.213-.96 3.09-1.44 5.63-1.44 2.54 0 4.78.25 6.72.75l-1.56 4.8c-1.74-.3-3.14-.45-4.2-.45-1.06 0-1.96.05-2.7.15l-.24 1.47 2.01.21c2.04.22 3.49.707 4.35 1.46.86.747 1.29 1.75 1.29 3.01 0 1.28-.28 2.6-.84 3.96-.28.7-.587 1.287-.92 1.76-.327.467-.747.863-1.26 1.19-.507.333-.97.583-1.39.75-.42.173-.95.3-1.59.38-.94.14-2.09.21-3.45.21-2.48 0-4.73-.26-6.75-.78z" fill="#fff"/></svg>

<?xml version="1.0" encoding="utf-8"?>
<svg viewBox="0 0 200 40" xmlns="http://www.w3.org/2000/svg">
  <defs>
    <mask id="mask2920">
      <path d="M 304 156.5 A 149 149 0 1 1  6,156.5 A 149 149 0 1 1  304 156.5 z" transform="matrix(0.996644,0,0,0.996644,2.02013,0.525168)" style="opacity:1;fill:white;fill-opacity:1;fill-rule:evenodd;stroke:none;stroke-width:1.5050509;stroke-linecap:round;stroke-linejoin:round;stroke-miterlimit:4;stroke-dasharray:none;stroke-dashoffset:0;stroke-opacity:1" id="path2918"/>
    </mask>
  </defs>
  <path d="M 54.87 20.168 C 54.87 27.596 46.728 32.239 40.212 28.525 C 37.188 26.802 35.327 23.615 35.327 20.168 C 35.327 12.739 43.469 8.096 49.985 11.81 C 53.008 13.534 54.87 16.721 54.87 20.168 Z" style="opacity: 1; fill-opacity: 1; fill-rule: evenodd; stroke: none; stroke-width: 1.50505; stroke-linecap: round; stroke-linejoin: round; stroke-miterlimit: 4; stroke-dasharray: none; stroke-dashoffset: 0; stroke-opacity: 1; fill: rgb(255, 255, 255);" id="path2916"/>
  <g mask="url(#mask2920)" id="g2893" transform="matrix(0.065805, 0, 0, 0.064984, 34.799545, 9.99781)">
    <g id="g2878">
      <path d="M 592.8171,448.4119 C 586.062,437.8911 579.5442,433.0327 566.6813,429.7978" style="font-size: 12px; fill: none; fill-rule: evenodd; stroke-width: 2.30567; stroke-miterlimit: 4; stroke-dasharray: none; stroke-dashoffset: 0; stroke: rgb(20, 20, 20);" id="path623" transform="matrix(0.650569,0,0,0.650569,-87.30901,-182.4046)"/>
      <path d="M 50,45.375 L 63.5,59.125" style="font-size: 12px; fill: none; fill-opacity: 0.75; fill-rule: evenodd; stroke-width: 1.5; stroke-linecap: butt; stroke-linejoin: miter; stroke-miterlimit: 4; stroke-dasharray: none; stroke-opacity: 1; stroke: rgb(20, 20, 20);" id="path1939" transform="translate(1.573495e-5,-2.01112e-6)"/>
      <path d="M 48,92 C 17.343031,113.95613 9.8749323,158.5057 11,158.25" style="font-size: 12px; fill: none; fill-opacity: 0.75; fill-rule: evenodd; stroke-width: 1.5; stroke-linecap: butt; stroke-linejoin: miter; stroke-miterlimit: 4; stroke-dasharray: none; stroke-opacity: 1; stroke: rgb(20, 20, 20);" id="path1941" transform="translate(1.573495e-5,-2.01112e-6)"/>
      <path d="M 87,95.25 C 83.838739,118.58707 92.251479,144.16426 109.75,171.5" style="font-size: 12px; fill: none; fill-opacity: 0.75; fill-rule: evenodd; stroke-width: 1.5; stroke-linecap: butt; stroke-linejoin: miter; stroke-miterlimit: 4; stroke-dasharray: none; stroke-opacity: 1; stroke: rgb(20, 20, 20);" id="path1943" transform="translate(1.573495e-5,-2.01112e-6)"/>
      <path d="M 29.125,206.875 C 43.551728,221.29884 62.727088,219.08451 80.75,219.5" style="font-size: 12px; fill: none; fill-opacity: 0.75; fill-rule: evenodd; stroke-width: 1.5; stroke-linecap: butt; stroke-linejoin: miter; stroke-miterlimit: 4; stroke-dasharray: none; stroke-opacity: 1; stroke: rgb(20, 20, 20);" id="path1945" transform="translate(1.573495e-5,-2.01112e-6)"/>
      <path d="M 124.62757,264.85868 C 121.50526,273.11027 122.3124,284.54283 124.09724,296.76687" style="font-size: 12px; fill: none; fill-opacity: 0.75; fill-rule: evenodd; stroke-width: 1.5; stroke-linecap: butt; stroke-linejoin: miter; stroke-miterlimit: 4; stroke-dasharray: none; stroke-opacity: 1; stroke: rgb(20, 20, 20);" id="path1947" transform="translate(1.573495e-5,-2.01112e-6)"/>
      <path d="M 103.06081,28.41985 C 114.53778,16.928747 139.15577,9.5121461 171.29662,6.1459867" style="font-size: 12px; fill: none; fill-opacity: 0.75; fill-rule: evenodd; stroke-width: 1.5; stroke-linecap: butt; stroke-linejoin: miter; stroke-miterlimit: 4; stroke-dasharray: none; stroke-opacity: 1; stroke: rgb(20, 20, 20);" id="path1949" transform="translate(1.573495e-5,-2.01112e-6)"/>
      <path d="M 237.32271,50.074995 C 229.33556,35.199221 215.26475,23.510127 200.375,12.25" style="font-size: 12px; fill: none; fill-opacity: 0.75; fill-rule: evenodd; stroke-width: 1.5; stroke-linecap: butt; stroke-linejoin: miter; stroke-miterlimit: 4; stroke-dasharray: none; stroke-opacity: 1; stroke: rgb(20, 20, 20);" id="path1951" transform="translate(1.573495e-5,-2.01112e-6)"/>
      <path d="M 127.98633,54.052471 C 145.62914,56.03967 177.47341,58.653561 202.76287,72.967578" style="font-size: 12px; fill: none; fill-opacity: 0.75; fill-rule: evenodd; stroke-width: 1.5; stroke-linecap: butt; stroke-linejoin: miter; stroke-miterlimit: 4; stroke-dasharray: none; stroke-opacity: 1; stroke: rgb(20, 20, 20);" id="path1953" transform="translate(1.573495e-5,-2.01112e-6)"/>
      <path d="M 222.5,124 C 207.37759,144.853 189.12214,164.31354 168,182.5" style="fill: none; fill-opacity: 0.75; fill-rule: evenodd; stroke-width: 1.5; stroke-linecap: butt; stroke-linejoin: miter; stroke-miterlimit: 4; stroke-dasharray: none; stroke-opacity: 1; stroke: rgb(20, 20, 20);" id="path1964"/>
      <path d="M 177.5,238.25 C 196.85774,249.05051 218.06069,253.69485 243.75,249.5" style="fill: none; fill-opacity: 0.75; fill-rule: evenodd; stroke-width: 1.5; stroke-linecap: butt; stroke-linejoin: miter; stroke-miterlimit: 4; stroke-dasharray: none; stroke-opacity: 1; stroke: rgb(20, 20, 20);" id="path1966"/>
      <path d="M 268.5,136.5 C 278.38101,155.05214 279.83112,181.38666 281.25,207.75" style="fill: none; fill-opacity: 0.75; fill-rule: evenodd; stroke-width: 1.5; stroke-linecap: butt; stroke-linejoin: miter; stroke-miterlimit: 4; stroke-dasharray: none; stroke-opacity: 1; stroke: rgb(20, 20, 20);" id="path1968"/>
      <path d="M 277.75,96.75 C 285.88915,97.023647 293.7766,101.32442 301.25,112.25" style="fill: none; fill-opacity: 0.75; fill-rule: evenodd; stroke-width: 1.5; stroke-linecap: butt; stroke-linejoin: miter; stroke-miterlimit: 4; stroke-dasharray: none; stroke-opacity: 1; stroke: rgb(20, 20, 20);" id="path1970"/>
    </g>
    <g id="g2870">
      <path d="M 40.25,98 C 60.903975,101.61865 69.402891,100.15978 86.5,101.75 C 96.606779,88.488277 113.76236,71.702154 131.75,54.5 C 124.32626,42.915274 117.31948,31.058924 108.5,23.75 C 86.109731,31.340533 70.164818,40.68889 55,50.25 C 45.481745,66.824036 40.435292,82.759244 40.25,98 z " style="fill-opacity: 1; fill-rule: evenodd; stroke: none; stroke-width: 1px; stroke-linecap: butt; stroke-linejoin: miter; stroke-opacity: 1; fill: rgb(20, 20, 20);" id="path1972"/>
      <path d="M 198,70.75 C 204.79286,89.419048 210.6345,106.18567 219.25,128.5 C 236.97598,133.18078 255.87577,138.80061 270.5,141 C 275.20076,131.56252 278.31084,113.3763 281.75,97 C 270.06966,78.881835 253.409,63.253834 236.5,47.75 C 224.06436,52.235122 211.09638,60.978984 198,70.75 z " style="fill-opacity: 1; fill-rule: evenodd; stroke: none; stroke-width: 1px; stroke-linecap: butt; stroke-linejoin: miter; stroke-opacity: 1; fill: rgb(20, 20, 20);" id="path2860"/>
      <path d="M 106.75,167 C 129.54472,170.75 151.53732,174.5 173,178.25 C 179.63556,199.08333 180.4943,219.91667 182.75,240.75 C 166.34045,254.38568 143.71147,258.69221 123.75,267 C 100.52365,251.98663 91.0668,235.25207 77.75,219 C 85.396852,201.41419 93.83235,183.92696 106.75,167 z " style="fill-opacity: 1; fill-rule: evenodd; stroke: none; stroke-width: 1px; stroke-linecap: butt; stroke-linejoin: miter; stroke-opacity: 1; fill: rgb(20, 20, 20);" id="path2862"/>
      <path d="M 1.0606602,148.80478 C 1.092887,149.85255 9.1074446,151.03079 12.020815,149.86544 C 15.367163,171.28334 19.749509,192.01057 31.466252,207.8482 C 29.172257,219.07147 31.331804,228.06796 34.648232,236.48602 C 14.329863,242.18069 16.096074,245.25998 8.131728,248.86039" style="fill-opacity: 1; fill-rule: evenodd; stroke: none; stroke-width: 1px; stroke-linecap: butt; stroke-linejoin: miter; stroke-opacity: 1; fill: rgb(20, 20, 20);" id="path2864"/>
      <path d="M 75.660426,284.39251 C 94.971098,289.50503 109.03904,299.42925 123.92046,294.292 C 128.29729,300.49191 140.40684,304.97555 172.00372,306.31282 L 86.090251,313.91421" style="fill-opacity: 1; fill-rule: evenodd; stroke: none; stroke-width: 1px; stroke-linecap: butt; stroke-linejoin: miter; stroke-opacity: 1; fill: rgb(20, 20, 20);" id="path2866"/>
      <path d="M 299.625,212.625 C 293.98764,208.47069 288.15579,204.51087 280.875,202 C 266.375,221.3174 251.875,243.30773 237.375,250.25 C 237.10774,262.15911 235.25184,272.79731 230,280.71875 C 240.95118,281.45727 252.38887,281.41739 265,279.5" style="fill-opacity: 1; fill-rule: evenodd; stroke: none; stroke-width: 1px; stroke-linecap: butt; stroke-linejoin: miter; stroke-opacity: 1; fill: rgb(20, 20, 20);" id="path2868"/>
    </g>
  </g>
  <path d="M 54.87 20.168 C 54.87 27.596 46.728 32.239 40.212 28.525 C 37.188 26.802 35.327 23.615 35.327 20.168 C 35.327 12.739 43.469 8.096 49.985 11.81 C 53.008 13.534 54.87 16.721 54.87 20.168 Z" style="opacity: 1; fill: none; fill-opacity: 1; fill-rule: evenodd; stroke-linecap: round; stroke-linejoin: round; stroke-miterlimit: 4; stroke-dasharray: none; stroke-dashoffset: 0; stroke-opacity: 1; stroke: rgb(20, 20, 20);" id="path2923"/>
  <path d="M 61.572 28.87 L 61.572 28.87 L 63.252 23.92 L 63.252 23.92 C 64.932 24.38 66.472 24.61 67.872 24.61 L 67.872 24.61 L 67.872 24.61 C 69.272 24.61 70.402 24.55 71.262 24.43 L 71.262 24.43 L 71.502 22.93 L 69.012 22.69 L 69.012 22.69 C 67.112 22.51 65.765 22.08 64.972 21.4 L 64.972 21.4 L 64.972 21.4 C 64.185 20.72 63.792 19.76 63.792 18.52 L 63.792 18.52 L 63.792 18.52 C 63.792 17.98 63.852 17.38 63.972 16.72 L 63.972 16.72 L 63.972 16.72 C 64.432 14.16 65.265 12.4 66.472 11.44 L 66.472 11.44 L 66.472 11.44 C 67.685 10.48 69.562 10 72.102 10 L 72.102 10 L 72.102 10 C 74.642 10 76.882 10.25 78.822 10.75 L 78.822 10.75 L 77.262 15.55 L 77.262 15.55 C 75.522 15.25 74.122 15.1 73.062 15.1 L 73.062 15.1 L 73.062 15.1 C 72.002 15.1 71.102 15.15 70.362 15.25 L 70.362 15.25 L 70.122 16.72 L 72.132 16.93 L 72.132 16.93 C 74.172 17.15 75.622 17.637 76.482 18.39 L 76.482 18.39 L 76.482 18.39 C 77.342 19.137 77.772 20.14 77.772 21.4 L 77.772 21.4 L 77.772 21.4 C 77.772 22.68 77.492 24 76.932 25.36 L 76.932 25.36 L 76.932 25.36 C 76.652 26.06 76.345 26.647 76.012 27.12 L 76.012 27.12 L 76.012 27.12 C 75.685 27.587 75.265 27.983 74.752 28.31 L 74.752 28.31 L 74.752 28.31 C 74.245 28.643 73.782 28.893 73.362 29.06 L 73.362 29.06 L 73.362 29.06 C 72.942 29.233 72.412 29.36 71.772 29.44 L 71.772 29.44 L 71.772 29.44 C 70.832 29.58 69.682 29.65 68.322 29.65 L 68.322 29.65 L 68.322 29.65 C 65.842 29.65 63.592 29.39 61.572 28.87 Z M 89.562 24.67 L 89.562 24.67 L 85.842 24.67 L 85.062 29.2 L 79.362 29.2 L 82.662 10.45 L 91.662 10.45 L 91.662 10.45 C 95.062 10.45 96.762 12.03 96.762 15.19 L 96.762 15.19 L 96.762 15.19 C 96.762 16.69 96.552 18.043 96.132 19.25 L 96.132 19.25 L 96.132 19.25 C 95.712 20.463 95.248 21.427 94.742 22.14 L 94.742 22.14 L 94.742 22.14 C 94.228 22.847 93.525 23.447 92.632 23.94 L 92.632 23.94 L 92.632 23.94 C 91.745 24.427 90.722 24.67 89.562 24.67 Z M 88.812 15.25 L 87.492 15.25 L 86.682 19.87 L 88.002 19.87 L 88.002 19.87 C 88.682 19.87 89.195 19.797 89.542 19.65 L 89.542 19.65 L 89.542 19.65 C 89.895 19.497 90.122 19.15 90.222 18.61 L 90.222 18.61 L 90.222 18.61 C 90.482 17.13 90.612 16.32 90.612 16.18 L 90.612 16.18 L 90.612 16.18 C 90.612 15.8 90.462 15.55 90.162 15.43 L 90.162 15.43 L 90.162 15.43 C 89.862 15.31 89.412 15.25 88.812 15.25 L 88.812 15.25 Z M 104.021 16.72 L 104.021 16.72 L 102.641 24.52 L 105.011 24.52 L 105.011 24.52 C 105.791 24.52 106.371 24.427 106.751 24.24 L 106.751 24.24 L 106.751 24.24 C 107.131 24.047 107.381 23.61 107.501 22.93 L 107.501 22.93 L 108.881 15.13 L 106.481 15.13 L 106.481 15.13 C 105.721 15.13 105.151 15.223 104.771 15.41 L 104.771 15.41 L 104.771 15.41 C 104.391 15.603 104.141 16.04 104.021 16.72 Z M 107.471 10 L 107.471 10 L 107.471 10 C 110.011 10 111.821 10.497 112.901 11.49 L 112.901 11.49 L 112.901 11.49 C 113.981 12.477 114.521 14 114.521 16.06 L 114.521 16.06 L 114.521 16.06 C 114.521 18.12 114.195 20.277 113.541 22.53 L 113.541 22.53 L 113.541 22.53 C 112.895 24.777 111.865 26.523 110.451 27.77 L 110.451 27.77 L 110.451 27.77 C 109.045 29.023 106.985 29.65 104.271 29.65 L 104.271 29.65 L 104.271 29.65 C 101.565 29.65 99.671 29.157 98.591 28.17 L 98.591 28.17 L 98.591 28.17 C 97.511 27.177 96.971 25.65 96.971 23.59 L 96.971 23.59 L 96.971 23.59 C 96.971 22.61 97.111 21.317 97.391 19.71 L 97.391 19.71 L 97.391 19.71 C 97.671 18.097 98.041 16.707 98.501 15.54 L 98.501 15.54 L 98.501 15.54 C 98.961 14.367 99.581 13.35 100.361 12.49 L 100.361 12.49 L 100.361 12.49 C 101.861 10.83 104.231 10 107.471 10 Z M 129.011 22.96 L 130.991 29.2 L 124.721 29.2 L 123.341 23.62 L 122.111 23.62 L 121.151 29.2 L 115.451 29.2 L 118.751 10.45 L 127.751 10.45 L 127.751 10.45 C 131.171 10.45 132.881 11.98 132.881 15.04 L 132.881 15.04 L 132.881 15.04 C 132.881 16.3 132.691 17.5 132.311 18.64 L 132.311 18.64 L 132.311 18.64 C 131.611 20.8 130.511 22.24 129.011 22.96 L 129.011 22.96 Z M 124.721 15.25 L 123.581 15.25 L 122.921 19 L 124.241 19 L 124.241 19 C 124.921 19 125.434 18.927 125.781 18.78 L 125.781 18.78 L 125.781 18.78 C 126.134 18.627 126.374 18.197 126.501 17.49 L 126.501 17.49 L 126.501 17.49 C 126.634 16.777 126.701 16.34 126.701 16.18 L 126.701 16.18 L 126.701 16.18 C 126.701 15.78 126.548 15.523 126.241 15.41 L 126.241 15.41 L 126.241 15.41 C 125.928 15.303 125.421 15.25 124.721 15.25 L 124.721 15.25 Z M 149.321 10.45 L 148.451 15.25 L 144.311 15.25 L 141.881 29.2 L 136.181 29.2 L 138.611 15.25 L 134.501 15.25 L 135.371 10.45 L 149.321 10.45 Z M 147.881 28.87 L 147.881 28.87 L 149.561 23.92 L 149.561 23.92 C 151.241 24.38 152.781 24.61 154.181 24.61 L 154.181 24.61 L 154.181 24.61 C 155.581 24.61 156.711 24.55 157.571 24.43 L 157.571 24.43 L 157.811 22.93 L 155.321 22.69 L 155.321 22.69 C 153.421 22.51 152.074 22.08 151.281 21.4 L 151.281 21.4 L 151.281 21.4 C 150.494 20.72 150.101 19.76 150.101 18.52 L 150.101 18.52 L 150.101 18.52 C 150.101 17.98 150.161 17.38 150.281 16.72 L 150.281 16.72 L 150.281 16.72 C 150.741 14.16 151.574 12.4 152.781 11.44 L 152.781 11.44 L 152.781 11.44 C 153.994 10.48 155.871 10 158.411 10 L 158.411 10 L 158.411 10 C 160.951 10 163.191 10.25 165.131 10.75 L 165.131 10.75 L 163.571 15.55 L 163.571 15.55 C 161.831 15.25 160.431 15.1 159.371 15.1 L 159.371 15.1 L 159.371 15.1 C 158.311 15.1 157.411 15.15 156.671 15.25 L 156.671 15.25 L 156.431 16.72 L 158.441 16.93 L 158.441 16.93 C 160.481 17.15 161.931 17.637 162.791 18.39 L 162.791 18.39 L 162.791 18.39 C 163.651 19.137 164.081 20.14 164.081 21.4 L 164.081 21.4 L 164.081 21.4 C 164.081 22.68 163.801 24 163.241 25.36 L 163.241 25.36 L 163.241 25.36 C 162.961 26.06 162.654 26.647 162.321 27.12 L 162.321 27.12 L 162.321 27.12 C 161.994 27.587 161.574 27.983 161.061 28.31 L 161.061 28.31 L 161.061 28.31 C 160.554 28.643 160.091 28.893 159.671 29.06 L 159.671 29.06 L 159.671 29.06 C 159.251 29.233 158.721 29.36 158.081 29.44 L 158.081 29.44 L 158.081 29.44 C 157.141 29.58 155.991 29.65 154.631 29.65 L 154.631 29.65 L 154.631 29.65 C 152.151 29.65 149.901 29.39 147.881 28.87 Z" style="white-space: pre; fill: rgb(255, 255, 255);"/>
</svg>
